target/docbkx/images/warning.svg

<?xml version="1.0" encoding="iso-8859-1"?>
<!-- Generator: Adobe Illustrator 9.0, SVG Export Plug-In  -->
<!DOCTYPE svg [
	<!ENTITY st0 "fill:#000000;stroke:#FFFFFF;stroke-width:7.9139;stroke-linejoin:round;">
	<!ENTITY st1 "fill-rule:nonzero;clip-rule:nonzero;fill:#FFFFFF;stroke:#000000;stroke-miterlimit:4;">
	<!ENTITY st2 "fill:none;stroke:none;">
	<!ENTITY st3 "fill:#000000;">
	<!ENTITY st4 "fill-rule:evenodd;clip-rule:evenodd;stroke:none;">
	<!ENTITY st5 "fill-rule:nonzero;clip-rule:nonzero;stroke:#000000;stroke-miterlimit:4;">
]>
<svg  width="48pt" height="48pt" viewBox="0 0 48 48" xml:space="preserve" xmlns="http://www.w3.org/2000/svg">
	<g id="Layer_x0020_4" style="&st1;">
		<g style="&st4;">
			<path style="&st0;" d="M16.4,42.3L5.7,31.6V16.4L16.4,5.7h15.2l10.7,10.7v15.2L31.6,42.3H16.4z"/>
			<path style="&st3;" d="M16.4,42.3L5.7,31.6V16.4L16.4,5.7h15.2l10.7,10.7v15.2L31.6,42.3H16.4z"/>
			<path d="M11.7,17.7l18.7,18.7l5.9-5.9L17.6,11.7l-5.9,5.9z"/>
			<path d="M11.7,30.5l5.9,5.9l18.7-18.7l-5.9-5.9L11.7,30.5z"/>
		</g>
	</g>
	<g id="crop_x0020_marks" style="&st5;">
		<path style="&st2;" d="M48,48H0V0h48v48z"/>
	</g>
</svg>

<?xml version="1.0" encoding="UTF-8" standalone="no"?>
<!-- Generator: Adobe Illustrator 9.0, SVG Export Plug-In  -->

<svg
   xmlns:dc="http://purl.org/dc/elements/1.1/"
   xmlns:cc="http://creativecommons.org/ns#"
   xmlns:rdf="http://www.w3.org/1999/02/22-rdf-syntax-ns#"
   xmlns:svg="http://www.w3.org/2000/svg"
   xmlns="http://www.w3.org/2000/svg"
   xmlns:sodipodi="http://sodipodi.sourceforge.net/DTD/sodipodi-0.dtd"
   xmlns:inkscape="http://www.inkscape.org/namespaces/inkscape"
   width="48pt"
   height="48pt"
   viewBox="0 0 48 48"
   xml:space="preserve"
   id="svg4741"
   version="1.1"
   inkscape:version="0.48.0 r9654"
   sodipodi:docname="warning.svg"><metadata
   id="metadata4761"><rdf:RDF><cc:Work
       rdf:about=""><dc:format>image/svg+xml</dc:format><dc:type
         rdf:resource="http://purl.org/dc/dcmitype/StillImage" /></cc:Work></rdf:RDF></metadata><defs
   id="defs4759">
		
	
			
			
			
			
		</defs><sodipodi:namedview
   pagecolor="#ffffff"
   bordercolor="#666666"
   borderopacity="1"
   objecttolerance="10"
   gridtolerance="10"
   guidetolerance="10"
   inkscape:pageopacity="0"
   inkscape:pageshadow="2"
   inkscape:window-width="1159"
   inkscape:window-height="739"
   id="namedview4757"
   showgrid="false"
   inkscape:zoom="8.9066239"
   inkscape:cx="30"
   inkscape:cy="30"
   inkscape:window-x="122"
   inkscape:window-y="62"
   inkscape:window-maximized="0"
   inkscape:current-layer="svg4741" />
	<path
   style="fill:#000000;fill-rule:evenodd;stroke:#ffffff;stroke-width:7.9138999;stroke-linejoin:round"
   d="M 16.4,42.3 5.7,31.6 V 16.4 L 16.4,5.7 H 31.6 L 42.3,16.4 V 31.6 L 31.6,42.3 H 16.4 z"
   id="path4746"
   inkscape:connector-curvature="0" /><path
   style="fill:#c40022;fill-rule:evenodd;stroke:none;fill-opacity:1"
   d="M 16.4,42.3 5.7,31.6 V 16.4 L 16.4,5.7 H 31.6 L 42.3,16.4 V 31.6 L 31.6,42.3 H 16.4 z"
   id="path4748"
   inkscape:connector-curvature="0" /><path
   style="fill:#ffffff;fill-rule:evenodd;stroke:none"
   d="M 11.7,17.7 30.4,36.4 36.3,30.5 17.6,11.7 11.7,17.6 z"
   id="path4750"
   inkscape:connector-curvature="0" /><path
   style="fill:#ffffff;fill-rule:evenodd;stroke:none"
   d="M 11.7,30.5 17.6,36.4 36.3,17.7 30.4,11.8 11.7,30.5 z"
   id="path4752"
   inkscape:connector-curvature="0" />
	<g
   id="crop_x0020_marks"
   style="fill-rule:nonzero;clip-rule:nonzero;stroke:#000000;stroke-miterlimit:4;">
		<path
   style="fill:none;stroke:none;"
   d="M48,48H0V0h48v48z"
   id="path4755" />
	</g>
</svg>
